icons/svg/washing-machine.svg

﻿<?xml version="1.0" encoding="utf-8"?>
<!DOCTYPE svg PUBLIC "-//W3C//DTD SVG 1.1//EN" "http://www.w3.org/Graphics/SVG/1.1/DTD/svg11.dtd">
<svg xmlns="http://www.w3.org/2000/svg" xmlns:xlink="http://www.w3.org/1999/xlink" version="1.1" baseProfile="full" width="24" height="24" viewBox="0 0 24.00 24.00" enable-background="new 0 0 24.00 24.00" xml:space="preserve">
	<path fill="#000000" fill-opacity="1" stroke-width="0.2" stroke-linejoin="round" d="M 14.8284,11.1716C 16.3905,12.7337 16.3905,15.2663 14.8284,16.8284C 13.2663,18.3905 10.7337,18.3905 9.17157,16.8284L 14.8284,11.1716 Z M 6,2.00001L 18,2.00001C 19.1046,2.00001 20,2.89543 20,4L 20,20C 20,21.1046 19.1046,22 18,22L 6,22C 4.89543,22 4,21.1046 4,20L 4,4C 4,2.89543 4.89543,2.00001 6,2.00001 Z M 7,4.00001C 6.44771,4.00001 6,4.44772 6,5.00001C 6,5.55229 6.44771,6.00001 7,6.00001C 7.55228,6.00001 8,5.55229 8,5.00001C 8,4.44772 7.55228,4.00001 7,4.00001 Z M 10,4.00001C 9.44771,4.00001 9,4.44772 9,5.00001C 9,5.55229 9.44771,6.00001 10,6.00001C 10.5523,6.00001 11,5.55229 11,5.00001C 11,4.44772 10.5523,4.00001 10,4.00001 Z M 12,8C 8.68629,8 6,10.6863 6,14C 6,17.3137 8.68629,20 12,20C 15.3137,20 18,17.3137 18,14C 18,10.6863 15.3137,8 12,8 Z "/>
</svg>

<svg xmlns="http://www.w3.org/2000/svg" version="1.1" baseProfile="full" width="24" height="24" viewBox="0 0 24.00 24.00" xml:space="preserve"><path fill="#000" fill-opacity="1" stroke-width=".2" stroke-linejoin="round" d="M14.828 11.172c1.563 1.562 1.563 4.094 0 5.656-1.562 1.563-4.094 1.563-5.656 0l5.656-5.656zM6 2h12c1.105 0 2 .895 2 2v16c0 1.105-.895 2-2 2H6c-1.105 0-2-.895-2-2V4c0-1.105.895-2 2-2zm1 2c-.552 0-1 .448-1 1s.448 1 1 1 1-.448 1-1-.448-1-1-1zm3 0c-.552 0-1 .448-1 1s.448 1 1 1 1-.448 1-1-.448-1-1-1zm2 4c-3.314 0-6 2.686-6 6s2.686 6 6 6 6-2.686 6-6-2.686-6-6-6z"/></svg>
